!!!OTL: Kalenda Maya
!!!OTL@EN: Neither May Day...
!!!COM: Vaqueiras, Raimbaut de
!!!CDT: ~1150///-1207///
!!!CNT@EN: French
!!!AGN: Troubador Song
**kern	**kern
!!drone	!voice
*Ihurdy	*Ivox
*M6/4	*M6/4
*MM144	*MM144
=1-	=1-
2c 2g 2cc	2r
4cc	4r
2.cc	2r
.	4e
=2	=2
1.c 1.g	2g
.	4g
.	8a
.	8g
.	4f
.	4g
=3	=3
1.c 1.g	2a
.	4b-
.	4a
.	4g
.	4a
=4	=4
1.c 1.g	2b-
.	4cc
.	4b-
.	4a
.	4g
=5	=5
1.c 1.g	2e
.	4f
.	8e
.	8d
.	4c
.	4e
=6	=6
1.c 1.g	2g
.	4g
.	8a
.	8g
.	4f
.	4g
=7	=7
1.c 1.g	2a
.	4b-
.	4a
.	4g
.	4a
=8	=8
1.c 1.g	2b-
.	4cc
.	4b-
.	4a
.	4g
=9	=9
1.c 1.g	2e
.	4f
.	8e
.	8d
.	4c
.	4e
=10	=10
1.c 1.g	2g
.	4g
.	2a
.	4b-
=11	=11
1.c 1.g	2g
.	4f
.	8e
.	8d
.	4c
.	4e
=12	=12
1.c 1.g	2g
.	4g
.	2a
.	4b-
=13	=13
1.c 1.g	2g
.	4f
.	8e
.	8d
.	4c
.	4e
=14	=14
1.c 1.g	2.d
.	2c
.	4e
=15	=15
1.c 1.g	2.d
.	4c
.	4r
.	4e
=16	=16
1.c 1.g	2g
.	4g
.	2e
.	8f
.	8e
=17	=17
1.c 1.g	4d
.	2c
.	4c
.	4r
.	4e
=18	=18
1.c 1.g	2.d
.	2c
.	4e
=19	=19
1.c 1.g	2.d
.	2c
.	4e
=20	=20
1.c 1.g	2g
.	4g
.	2e
.	4f
=21	=21
1.c 1.g	8e
.	8f
.	4e
.	4d
.	4d
.	2c
=22	=22
2c 2g 2cc	1.r
4cc	.
2cc	.
4cc	.
=23	=23
2c 2g 2cc	1.r
4cc	.
2cc	.
4cc	.
=24	=24
2c 2g 2cc	1.r
4cc	.
8dd	.
8cc	.
4b-	.
4cc	.
=25	=25
2c 2g 2cc	2r
4cc	4r
4.cc	2r
8r	.
4r	4e
=26	=26
1.c 1.g	2g
.	4g
.	8a
.	8g
.	4f
.	4g
=27	=27
1.c 1.g	2a
.	4b-
.	4a
.	4g
.	4a
=28	=28
1.c 1.g	2b-
.	4cc
.	4b-
.	4a
.	4g
=29	=29
1.c 1.g	2e
.	4f
.	8e
.	8d
.	4c
.	4e
=30	=30
1.c 1.g	2g
.	4g
.	8a
.	8g
.	4f
.	4g
=31	=31
1.c 1.g	2a
.	4b-
.	4a
.	4g
.	4a
=32	=32
1.c 1.g	2b-
.	4cc
.	4b-
.	4a
.	4g
=33	=33
1.c 1.g	2e
.	4f
.	8e
.	8d
.	4c
.	4e
=34	=34
1.c 1.g	2g
.	4g
.	2a
.	4b-
=35	=35
1.c 1.g	2g
.	4f
.	8e
.	8d
.	4c
.	4e
=36	=36
1.c 1.g	2g
.	4g
.	2a
.	4b-
=37	=37
1.c 1.g	2g
.	4f
.	8e
.	8d
.	4c
.	4e
=38	=38
1.c 1.g	2.d
.	2c
.	4e
=39	=39
1.c 1.g	2.d
.	2c
.	4d
=40	=40
1.c 1.g	2g
.	4g
.	2e
.	8f
.	8e
=41	=41
1.c 1.g	4d
.	2c
.	4c
.	4r
.	4e
=42	=42
1.c 1.g	2.d
.	2c
.	4e
=43	=43
1.c 1.g	2.d
.	2c
.	4e
=44	=44
1.c 1.g	2g
.	4g
.	2e
.	4f
=45	=45
1.c 1.g	8e
.	8f
.	4e
.	4d
.	4d
.	[2c
=46	=46
2c 2g 2gg	2.c]
4gg	.
4gg	2.r
4gg	.
4dd	.
=47	=47
1.c 1.g 1.cc	1.r
*-	*-
!!!ENC: Craig Stuart Sapp
!!!END: 2004/03/14/
